X:8
T:Canon with doubled part
M:3/2
L:1/2
Q:1/2=100
K:Bb
%%MIDI program 1 41 % Viola
%%MIDI program 2 41 % Viola
%%MIDI program 3 41 % Viola
%%MIDI program 4 41 % Viola
V:1
B|(d/>e/d)c|(B/>c/d)e|(f/>e/d)c|
B2B|B2F|(G/>A/B)G|(FB)F|
B2d|f2f|(d/>c/B)B|(d/>e/f)f|f2B|(d/>e/f)f|
V:2
[L:1/4]
z2|z2
B(d/>e/d)c|(B/>c/d)e(f/>e/d)c|B2BB2F|(G/>A/B)G(FB)F|B2df2f|(d/>c/B)B(d/>e/f)f|f2
B|(d/>e/f)f|(gf)(3(B/c/d/)|(cB)(3(A/B/c/)|(d/>c/B)d|(BF)F|(B/>c/d)B|(AB)(3(c/B/A/)|(B/>c/d)d|(f/e/d/c/)(B/A/)|(B/c/d/e/)(f/e/)|(d/f/B/d/)(3(c/B/A/)|B6|

